images/clients/Walmart.svg

<svg width="112" height="26" viewBox="0 0 112 26" fill="none" xmlns="http://www.w3.org/2000/svg">
<path d="M39.9692 9.24778V10.7213H40.0142C40.5445 9.93235 41.4247 9.00328 43.3757 9.00328C44.8935 9.00328 46.0579 9.77588 46.5569 10.9429H46.6019C47.0282 10.3529 47.5168 9.90628 48.0643 9.59006C48.7124 9.21518 49.4332 9.00002 50.3411 9.00002C52.3961 9.00002 54.2154 10.3366 54.2154 13.7073V20.1H51.0827V14.1539C51.0827 12.4457 50.4658 11.458 49.1837 11.458C48.2445 11.458 47.5619 12.0513 47.302 12.7815C47.2119 13.0325 47.1703 13.3748 47.1703 13.6617V20.1033H44.0376V13.9127C44.0376 12.462 43.445 11.4547 42.1801 11.4547C41.1682 11.4547 40.5341 12.2045 40.2741 12.8467C40.1633 13.1205 40.1286 13.4368 40.1286 13.7334V20.1H36.9924V9.24778H39.9692ZM70.3849 9.24778V11.295H70.4715C71.0468 9.73024 72.4121 9.00328 73.6111 9.00328C73.9126 9.00328 74.079 9.0261 74.3215 9.07174V11.9144C74.0339 11.8753 73.7671 11.8361 73.3928 11.8361C72.0344 11.8361 71.0883 12.5794 70.8492 13.7432C70.7973 13.9844 70.7799 14.2452 70.7799 14.5451V20.1033H67.5641V9.24778H70.3849ZM78.6879 5.6521V9.06848H81.4048V11.8329H78.6879V15.911C78.6879 17.2313 79.0449 17.8702 80.1053 17.8702C80.6043 17.8702 80.9716 17.8115 81.2904 17.7366L81.332 20.0283C80.9058 20.1782 79.9978 20.3412 79.0761 20.3412C77.9914 20.3412 77.0869 19.9859 76.5359 19.435C75.9052 18.8058 75.6141 17.7757 75.6141 16.3087V5.6521H78.6879ZM34.8092 20.1H31.6904V5.6521H34.8092V20.1ZM26.4923 16.224C26.4923 16.4228 26.475 16.6315 26.4161 16.8108C26.1735 17.5638 25.3453 18.1995 24.3126 18.1995C23.4497 18.1995 22.7636 17.7398 22.7636 16.7651C22.7636 15.2753 24.5101 14.8613 26.4958 14.8711V16.224H26.4923ZM29.6077 13.6258C29.6077 11.1646 28.4918 9.00328 24.718 9.00328C22.7809 9.00328 21.2423 9.51509 20.4036 9.97147L21.017 11.947C21.7829 11.4906 23.0061 11.1157 24.1636 11.1157C26.0799 11.1124 26.3918 12.1361 26.3918 12.7913V12.9478C22.216 12.9412 19.5789 14.3006 19.5789 17.0715C19.5789 18.7634 20.92 20.3478 23.2557 20.3478C24.6938 20.3478 25.8928 19.8099 26.6136 18.946H26.6829C26.6829 18.946 27.1611 20.8204 29.7879 20.1033C29.6493 19.3209 29.6042 18.4896 29.6042 17.4888V13.6258H29.6077ZM3.91188 5.6521C4.23416 7.181 5.14902 11.621 5.14902 11.621C5.53368 13.4465 5.88715 15.3601 6.15398 16.8727H6.2025C6.4624 15.2656 6.87131 13.7432 7.30795 11.859L8.85005 5.6521H12.2635L13.7051 12.0187C14.0828 13.7888 14.3843 15.1547 14.6234 16.801H14.6684C14.9283 15.1384 15.2679 13.7171 15.6387 11.8981L17.0249 5.6521H20.2997L16.2417 20.1C13.6565 20.6314 12.6654 19.6534 12.312 18.1017C11.9585 16.5467 11.2654 13.59 11.2654 13.59C10.9085 11.9698 10.6313 10.8288 10.4372 9.16628H10.3887C10.1114 10.8125 9.82036 11.9665 9.39065 13.5867L7.68915 20.1033C5.04852 20.5988 4.13366 19.8653 3.62772 17.8735C3.19108 16.1686 0.467285 5.65536 0.467285 5.65536H3.91188V5.6521ZM62.366 16.224C62.366 16.4228 62.3486 16.6315 62.2897 16.8108C62.0472 17.5638 61.2189 18.1995 60.1862 18.1995C59.3234 18.1995 58.6372 17.7398 58.6372 16.7651C58.6372 15.2753 60.3838 14.8613 62.3694 14.8711V16.224H62.366ZM65.4814 13.6258C65.4814 11.1646 64.3655 9.00328 60.5917 9.00328C58.6545 9.00328 57.1159 9.51509 56.2773 9.97147L56.8907 11.947C57.6565 11.4906 58.8798 11.1157 60.0372 11.1157C61.9501 11.1124 62.2655 12.1361 62.2655 12.7913V12.9478C58.0932 12.9412 55.456 14.3006 55.456 17.0715C55.456 18.7634 56.8006 20.3478 59.1328 20.3478C60.5674 20.3478 61.7699 19.8099 62.4873 18.946H62.56C62.56 18.946 63.0383 20.8204 65.665 20.1033C65.5264 19.3209 65.4814 18.4896 65.4814 17.4888V13.6258Z" fill="#041E42"/>
<path d="M94.0475 15.1241C94.355 15.6517 94.3342 16.2406 94.0061 16.5096L88.3342 20.4276C87.7435 20.7646 86.8592 20.3561 86.3584 19.5017C85.854 18.6439 85.9439 17.6874 86.5345 17.3504L92.8144 14.4705C93.2081 14.3208 93.7401 14.5965 94.0475 15.1241ZM101.512 15.1241C101.823 14.5965 102.352 14.3242 102.745 14.4671L109.029 17.3469C109.619 17.6839 109.706 18.6405 109.205 19.4983C108.7 20.3527 107.813 20.7578 107.225 20.4242L101.554 16.5062C101.229 16.2406 101.205 15.6483 101.512 15.1241ZM97.7781 17.2482C98.3964 17.2482 98.9042 17.5614 98.9733 17.9733L99.5847 24.7745C99.5847 25.4485 98.7868 26 97.7816 26C96.7798 26 95.9784 25.4485 95.9784 24.7745L96.5864 17.9733C96.6555 17.5614 97.1633 17.2482 97.7781 17.2482ZM101.554 9.49385L107.225 5.5724C107.813 5.2354 108.7 5.64048 109.205 6.4983C109.706 7.35611 109.619 8.31265 109.029 8.64965L102.745 11.5329C102.352 11.6758 101.82 11.4035 101.512 10.8759C101.205 10.3483 101.229 9.75936 101.554 9.49385ZM92.8144 11.5329L86.5345 8.64965C85.9473 8.31265 85.8575 7.35611 86.3584 6.4983C86.8592 5.64048 87.747 5.2354 88.3342 5.5724L94.0061 9.49385C94.3342 9.75596 94.355 10.3483 94.0475 10.8759C93.7401 11.4035 93.2081 11.6758 92.8144 11.5329ZM96.5864 8.02671L95.9784 1.22545C95.9784 0.551453 96.7764 0 97.7816 0C98.7868 0 99.5847 0.551453 99.5847 1.22545L98.9733 8.02671C98.9042 8.43519 98.3964 8.75177 97.7781 8.75177C97.1633 8.75177 96.6555 8.43519 96.5864 8.02671ZM110.738 20.4004V20.2302H110.894C110.946 20.2302 110.98 20.2642 110.98 20.3153C110.98 20.3629 110.946 20.4004 110.894 20.4004H110.738ZM110.611 20.7101C110.611 20.7272 110.624 20.7442 110.645 20.7442H110.711C110.728 20.7442 110.745 20.7272 110.745 20.7101V20.5161H110.852L110.939 20.7203C110.946 20.734 110.956 20.7442 110.97 20.7442H111.049C111.074 20.7442 111.091 20.7203 111.08 20.6965C111.049 20.6352 111.018 20.5706 110.987 20.5059C111.039 20.4889 111.118 20.4378 111.118 20.3153C111.118 20.1859 111.011 20.111 110.904 20.111H110.645C110.628 20.111 110.611 20.128 110.611 20.1451V20.7101ZM110.331 20.4276C110.331 20.1519 110.559 19.9272 110.839 19.9272C111.118 19.9272 111.346 20.1485 111.346 20.4276C111.346 20.7033 111.122 20.928 110.839 20.928C110.555 20.928 110.331 20.7033 110.331 20.4276ZM110.21 20.4276C110.21 20.768 110.49 21.0471 110.839 21.0471C111.184 21.0471 111.467 20.768 111.467 20.4276C111.467 20.0872 111.184 19.8081 110.839 19.8081C110.49 19.8081 110.21 20.0872 110.21 20.4276Z" fill="#FFC124"/>
</svg>

<svg xmlns="http://www.w3.org/2000/svg" width="112" height="26" fill="none" xmlns:v="https://vecta.io/nano"><path d="M39.969 9.248v1.474h.045c.53-.789 1.41-1.718 3.361-1.718 1.518 0 2.682.773 3.181 1.94h.045c.426-.59.915-1.037 1.462-1.353.648-.375 1.369-.59 2.277-.59 2.055 0 3.874 1.337 3.874 4.707V20.1h-3.133v-5.946c0-1.708-.617-2.696-1.899-2.696-.939 0-1.622.593-1.882 1.323-.09.251-.132.593-.132.88v6.442h-3.133v-6.191c0-1.451-.593-2.458-1.857-2.458-1.012 0-1.646.75-1.906 1.392-.111.274-.145.59-.145.887V20.1h-3.136V9.248h2.977zm30.416 0v2.047h.087c.575-1.565 1.941-2.292 3.14-2.292a3.32 3.32 0 0 1 .71.068v2.843c-.288-.039-.554-.078-.929-.078-1.358 0-2.304.743-2.544 1.907-.052.241-.069.502-.069.802v5.558h-3.216V9.248h2.821zm8.303-3.596v3.416h2.717v2.764h-2.717v4.078c0 1.32.357 1.959 1.417 1.959a4.97 4.97 0 0 0 1.185-.134l.042 2.292c-.426.15-1.334.313-2.256.313-1.085 0-1.989-.355-2.54-.906-.631-.629-.922-1.659-.922-3.126V5.652h3.074zM34.809 20.1H31.69V5.652h3.119V20.1zm-8.317-3.876c0 .199-.017.407-.076.587-.243.753-1.071 1.389-2.104 1.389-.863 0-1.549-.46-1.549-1.434 0-1.49 1.747-1.904 3.732-1.894v1.353h-.003zm3.115-2.598c0-2.461-1.116-4.623-4.89-4.623-1.937 0-3.476.512-4.314.968l.613 1.976c.766-.456 1.989-.831 3.147-.831 1.916-.003 2.228 1.02 2.228 1.676v.157c-4.176-.007-6.813 1.353-6.813 4.124 0 1.692 1.341 3.276 3.677 3.276 1.438 0 2.637-.538 3.358-1.402h.069s.478 1.874 3.105 1.157c-.139-.782-.184-1.614-.184-2.614v-3.863h.004zM3.912 5.652l1.237 5.969 1.005 5.252h.049c.26-1.607.669-3.129 1.105-5.014L8.85 5.652h3.413l1.442 6.367.918 4.782h.045l.97-4.903 1.386-6.246H20.3L16.242 20.1c-2.585.531-3.576-.447-3.93-1.998l-1.047-4.512-.828-4.424h-.049c-.277 1.646-.568 2.8-.998 4.42l-1.702 6.517c-2.641.495-3.555-.238-4.061-2.23L.467 5.655h3.445v-.003zm58.454 10.572c0 .199-.017.407-.076.587-.243.753-1.071 1.389-2.104 1.389-.863 0-1.549-.46-1.549-1.434 0-1.49 1.747-1.904 3.732-1.894v1.353h-.003zm3.115-2.598c0-2.461-1.116-4.623-4.89-4.623-1.937 0-3.476.512-4.314.968l.613 1.976c.766-.456 1.989-.831 3.146-.831 1.913-.003 2.228 1.02 2.228 1.676v.157c-4.172-.007-6.809 1.353-6.809 4.124 0 1.692 1.345 3.276 3.677 3.276 1.435 0 2.637-.538 3.354-1.402h.073s.478 1.874 3.105 1.157c-.139-.782-.184-1.614-.184-2.614v-3.863z" fill="#041e42"/><path d="M94.048 15.124c.308.528.287 1.117-.041 1.385l-5.672 3.918c-.591.337-1.475-.072-1.976-.926s-.415-1.814.176-2.151l6.28-2.88c.394-.15.926.126 1.233.654zm7.465 0c.311-.528.84-.8 1.233-.657l6.284 2.88c.59.337.677 1.294.176 2.151s-1.392 1.259-1.98.926l-5.671-3.918c-.325-.266-.349-.858-.042-1.382zm-3.734 2.124c.618 0 1.126.313 1.195.725l.611 6.801c0 .674-.798 1.226-1.803 1.226s-1.803-.552-1.803-1.226l.608-6.801c.069-.412.577-.725 1.192-.725zm3.776-7.754l5.671-3.921c.588-.337 1.475.068 1.98.926s.414 1.814-.176 2.151l-6.284 2.883c-.393.143-.925-.129-1.233-.657s-.283-1.117.042-1.382zm-8.74 2.039l-6.28-2.883c-.587-.337-.677-1.294-.176-2.151s1.389-1.263 1.976-.926l5.672 3.921c.328.262.349.854.041 1.382s-.839.8-1.233.657zm3.772-3.506l-.608-6.801c0-.674.798-1.225 1.803-1.225s1.803.551 1.803 1.225l-.611 6.801c-.069.408-.577.725-1.195.725s-1.123-.317-1.192-.725zM110.738 20.4v-.17h.156a.08.08 0 0 1 .086.085c0 .048-.034.085-.086.085h-.156zm-.127.31c0 .017.013.034.034.034h.066c.017 0 .034-.017.034-.034v-.194h.107l.087.204c.007.014.017.024.031.024h.079c.025 0 .042-.024.031-.048l-.093-.191c.052-.017.131-.068.131-.191 0-.129-.107-.204-.214-.204h-.259c-.017 0-.034.017-.034.034v.565zm-.28-.282c0-.276.228-.5.508-.5s.507.221.507.5-.224.5-.507.5-.508-.225-.508-.5zm-.121 0c0 .34.28.619.629.619s.628-.279.628-.619-.283-.62-.628-.62-.629.279-.629.62z" fill="#ffc124"/></svg>
